X: 2294
T: Back To Skibbereen
R: jig
M: 6/8
K: Edorian
EFA B2B|ABd B2B|EFA B2B|A2B AFD|
EFA B2B|ABd B3|BAF AFD|1 EFD E2 B:|2 EFD EFA||
B2e efg|fef d3|g2g gfe|fdA B3|
d2d dcB|ABG FGA|BGE AFD|1 EFD EFA:|2 EFD E2 B||

